X:169
M:4/4
L:1/4
K:D
D2 F A | A3/2 G/ F2 | E2 E G | G3/2 F/ E2 | F2 E B | A4 | A2 F G | A3/2 B/ A2 | A2 F G | A3/2 B/ A2 | !sintro!d2 c B | A3/2 G/ F D | E2 A2 | D4 !eintro!|]
